assets/images/common/submenu/tt_black.svg

<svg height="34" viewBox="0 0 41 34" width="41" xmlns="http://www.w3.org/2000/svg"><path d="m35.23 16.31c-.48 1.32-2.2.86-2.2.86l-3.06-.68v5.15l2.13.46v1.04l-3.77 7.72-16.35-4.72-.11-.87 1.68-1.86-1.83-10.32-7.87-1.5-.75-2.27 10.26-6.4s24.52 1.22 25.04 1.22.52.32.52.32v2.18s-3.2 8.35-3.69 9.67zm-21.27-12.09-8.17 4.87 25.04 3.45 4.74-7.64zm-7.4 10.29-2.48-2.66 25.01 4.45zm20.34 12.75-14.3-3.46.29-.91z" fill="none" stroke="#333" stroke-linecap="round" stroke-width="2"/></svg>

<svg xmlns="http://www.w3.org/2000/svg" viewBox="0 0 41 34" width="41" height="34">
	<style>
		tspan { white-space:pre }
		.shp0 { fill: none;stroke: #333333;paint-order:stroke fill markers;stroke-linecap:round;stroke-width: 2 } 
	</style>
	<path id="TT" fill-rule="evenodd" class="shp0" d="M35.23 16.31C34.75 17.63 33.03 17.17 33.03 17.17L29.97 16.49L29.97 21.64L32.1 22.1L32.1 23.14L28.33 30.86L11.98 26.14L11.87 25.27L13.55 23.41L11.72 13.09L3.85 11.59L3.1 9.32L13.36 2.92C13.36 2.92 37.88 4.14 38.4 4.14C38.92 4.14 38.92 4.46 38.92 4.46L38.92 6.64C38.92 6.64 35.72 14.99 35.23 16.31ZM13.96 4.22L5.79 9.09L30.83 12.54L35.57 4.9L13.96 4.22ZM6.56 14.51L4.08 11.85L29.09 16.3L6.56 14.51ZM26.9 27.26L12.6 23.8L12.89 22.89L26.9 27.26Z" />
</svg>
